img/svg/bg/cloud2.svg

<svg width="79" height="79" viewBox="0 0 79 79" fill="none" xmlns="http://www.w3.org/2000/svg">
<g clip-path="url(#clip0)">
<path d="M71.0997 56.8008C74.7337 56.8008 77.6567 53.8514 77.6567 50.2438C77.6567 46.6361 74.7074 43.6867 71.0997 43.6867C70.2044 43.6867 69.3617 43.8711 68.5717 44.1871C67.3867 40.0528 63.5947 37.0507 59.0654 37.0507C58.4597 37.0507 57.8541 37.1034 57.2747 37.2087C57.2747 37.1561 57.2747 37.1034 57.2747 37.0507C57.2747 26.1224 48.4267 17.2744 37.4984 17.2744C29.0191 17.2744 21.8037 22.6201 18.9861 30.0987C17.7221 29.7037 16.3791 29.4931 14.9834 29.4931C7.42574 29.4931 1.31641 35.6024 1.31641 43.1601C1.31641 50.7177 7.42574 56.8271 14.9834 56.8271H71.0997V56.8008Z" stroke="#C8C8C8" stroke-width="3" stroke-miterlimit="10"/>
</g>
<defs>
<clipPath id="clip0">
<rect width="79" height="79" fill="white"/>
</clipPath>
</defs>
</svg>

<svg width="79" height="79" viewBox="0 0 79 79" fill="none" xmlns="http://www.w3.org/2000/svg"><g clip-path="url(#clip0)"><path d="M71.1 56.8a6.558 6.558 0 006.557-6.556c0-3.608-2.95-6.557-6.557-6.557a6.76 6.76 0 00-2.528.5 9.858 9.858 0 00-9.507-7.136c-.605 0-1.21.052-1.79.158v-.158c0-10.929-8.848-19.777-19.777-19.777-8.479 0-15.694 5.346-18.512 12.825a13.39 13.39 0 00-4.003-.606c-7.557 0-13.667 6.11-13.667 13.667 0 7.558 6.11 13.667 13.667 13.667H71.1v-.026z" stroke="#C8C8C8" stroke-width="3" stroke-miterlimit="10"/></g><defs><clipPath id="clip0"><path fill="#fff" d="M0 0h79v79H0z"/></clipPath></defs></svg>
